X: 130997
T: Madcap
S: Darley & McCall Collection
Z: B.Black
L: 1/8
M: 6/8
R: jig
K: D
FAA FAA|BAA FEF|DFA A2B|def e2d|
FAA FAA|BAA FEF|DFA ABd|def e2d :|
faf gag|fed ecA|faf gag|afd e2d|
faf gag|afd ecA|AFA A2B|def e2d :|
